X:356
T:El Quirosanu (MQ 046)
R:Fandangu
C:Tradicional
S:Msica Tradicional Asturiana, (C) Tello & Tito. Asturies, 2001.
S:http://pagina.de/MusTradAst <telloytito@asturies.org>
N:Es otra variedad de danza asturiana.
N:Se suele bailar en toda la zona central de Asturias.
N:Esta versin la aprend de Graciano y Rogelio, dos gaiteros del Centro Asturiano de Madrid.
A:Asturies
Z:Manolo Quirs 046
M:3/8
L:1/8
Q:1/4=80
K:C
G
|c2 B/c/|AFA|c2 B/A/|G2 G|c2 B/c/|AFA|c2 B/A/|G2 E|
GFE|DB,D|FED|G2 {AG}E|GFE|DB,D|FED|C2 C|
|: FFG|A2 {BA}G|FED|C2 C|FFG|A2 G/A/|_B{cB}AG|F3 :|
DGG|DGG|FED|C3|DGG|DGG|FED|C3|
